src/assets/Hanshake.svg

<svg width="61" height="44" viewBox="0 0 61 44" fill="none" xmlns="http://www.w3.org/2000/svg">
<path fill-rule="evenodd" clip-rule="evenodd" d="M11.6205 0.594411C10.8828 0.262823 10.0436 0.237848 9.28742 0.524978C8.53127 0.812108 7.92014 1.38783 7.58843 2.12551L0.991283 16.7747C0.659306 17.5116 0.633449 18.3503 0.919391 19.1063C1.20533 19.8623 1.77969 20.4739 2.51628 20.8068L7.06078 22.8533C7.42586 23.0182 7.81984 23.1095 8.22022 23.1221C8.62059 23.1346 9.01953 23.0682 9.39423 22.9266C9.76894 22.785 10.1121 22.571 10.4041 22.2967C10.696 22.0225 10.9311 21.6934 11.0959 21.3283L17.6931 6.67611C18.0251 5.93913 18.0509 5.10051 17.765 4.34448C17.479 3.58845 16.9047 2.97684 16.1681 2.64401L11.6205 0.594411ZM6.21288 18.6748C6.46161 18.787 6.73 18.849 7.00271 18.8574C7.27543 18.8659 7.54713 18.8205 7.80231 18.7239C8.05749 18.6273 8.29115 18.4815 8.48995 18.2946C8.68874 18.1077 8.84878 17.8835 8.96093 17.6348C9.07308 17.386 9.13514 17.1176 9.14357 16.8449C9.152 16.5722 9.10663 16.3005 9.01005 16.0453C8.91347 15.7902 8.76758 15.5565 8.5807 15.3577C8.39382 15.1589 8.16961 14.9989 7.92088 14.8867C7.41855 14.6602 6.84682 14.6425 6.33146 14.8376C5.8161 15.0326 5.39933 15.4244 5.17283 15.9268C4.94634 16.4291 4.92867 17.0008 5.12372 17.5162C5.31876 18.0315 5.71055 18.4483 6.21288 18.6748ZM58.496 21.2063C58.8705 21.0642 59.2134 20.8496 59.505 20.575C59.7966 20.3003 60.0312 19.9709 60.1955 19.6055C60.3598 19.2401 60.4504 18.846 60.4624 18.4456C60.4743 18.0451 60.4072 17.6463 60.265 17.2718L54.5767 2.25361C54.4349 1.87881 54.2206 1.53564 53.946 1.24371C53.6715 0.95178 53.3421 0.716815 52.9767 0.552246C52.6113 0.387676 52.2171 0.296729 51.8165 0.2846C51.4159 0.272472 51.0169 0.339401 50.6422 0.481561L45.9849 2.24751C45.6104 2.38966 45.2675 2.60419 44.9759 2.87886C44.6843 3.15353 44.4496 3.48296 44.2854 3.84832C44.1211 4.21369 44.0304 4.60784 44.0185 5.00826C44.0066 5.40867 44.0736 5.80752 44.2159 6.18201L49.9072 21.2033C50.1937 21.9595 50.7688 22.5709 51.506 22.9032C52.2433 23.2355 53.0823 23.2615 53.8386 22.9753L58.496 21.2063ZM49.5381 4.59906C49.283 4.69579 49.0494 4.84182 48.8507 5.02883C48.652 5.21583 48.4921 5.44014 48.3801 5.68895C48.2681 5.93775 48.2061 6.20619 48.1979 6.47892C48.1896 6.75166 48.2351 7.02335 48.3319 7.27849C48.4286 7.53362 48.5746 7.76721 48.7616 7.96591C48.9486 8.16461 49.1729 8.32454 49.4217 8.43655C49.6705 8.54856 49.939 8.61047 50.2117 8.61874C50.4845 8.62702 50.7561 8.58149 51.0113 8.48476C51.5266 8.28941 51.9431 7.89737 52.1693 7.39488C52.3956 6.89239 52.4129 6.32061 52.2176 5.80534C52.0222 5.29006 51.6302 4.87349 51.1277 4.64727C50.6252 4.42105 50.0534 4.40371 49.5381 4.59906Z" fill="#FFC6E9"/>
<path fill-rule="evenodd" clip-rule="evenodd" d="M45.8997 5.52636H45.9241C46.1238 5.50894 46.318 5.45236 46.4958 5.35986C46.6736 5.26735 46.8315 5.14073 46.9603 4.98723C47.0892 4.83372 47.1866 4.65634 47.2469 4.46521C47.3072 4.27407 47.3293 4.07293 47.3118 3.87326C47.2944 3.6736 47.2378 3.47932 47.1453 3.30152C47.0528 3.12372 46.9262 2.96589 46.7727 2.83702C46.6192 2.70816 46.4418 2.61079 46.2507 2.55048C46.0596 2.49017 45.8584 2.46809 45.6587 2.48551H45.6343L45.555 2.49466L45.2592 2.52516L44.1825 2.62886C43.2767 2.72036 42.0231 2.86371 40.6384 3.04671C37.9087 3.40661 34.5262 3.95561 32.3119 4.69371C31.2383 5.05056 30.1037 5.74291 29.0179 6.53591C27.9169 7.34111 26.7762 8.32016 25.6843 9.33581C23.7464 11.1636 21.895 13.0811 20.1363 15.082C18.8584 16.5277 18.5625 18.8335 20.0631 20.4683C21.0391 21.5236 22.5641 22.8595 24.5405 23.4573C26.6054 24.0765 28.9844 23.8355 31.4152 22.0299L34.4622 20.0627L34.5171 20.0291C34.9532 20.2945 35.5602 20.752 36.2861 21.3589C37.0791 22.0238 37.9392 22.8077 38.7413 23.561C39.6518 24.4191 40.5466 25.2936 41.4253 26.184L41.5931 26.3579L41.6358 26.4006L41.651 26.4158L41.831 26.5988L42.0597 26.7178C43.2889 27.3278 44.64 27.1082 45.6892 26.7544C46.7811 26.3884 47.8669 25.7662 48.7911 25.1531C49.9482 24.3745 51.0443 23.5089 52.0699 22.5637L52.1247 22.5149L52.14 22.4996L52.143 22.4966C52.143 22.4966 51.8746 21.5511 50.8254 20.447L49.9989 21.484L49.3004 23.5L41.651 26.4158L43.2004 25.025L42.383 22.8382C41.8718 22.3347 41.3553 21.8365 40.8336 21.3437C40.0101 20.569 39.1012 19.7424 38.2411 19.0257C37.4085 18.3242 36.5423 17.6593 35.8194 17.2628C34.6177 16.604 33.4404 17.092 32.806 17.5037L29.6706 19.5289L29.6279 19.5594C27.9352 20.8282 26.5444 20.877 25.4189 20.5385C24.1989 20.1725 23.1162 19.2819 22.3079 18.4035C22.0548 18.129 21.9816 17.6013 22.4208 17.1042C24.1138 15.1767 25.8959 13.3295 27.7613 11.5684C28.8014 10.6016 29.8445 9.70791 30.8174 8.99726C31.8117 8.27136 32.6474 7.79861 33.2788 7.58816C35.182 6.95376 38.296 6.43221 41.038 6.06926C42.5374 5.87224 44.0403 5.70243 45.5459 5.55991L45.8295 5.53246L45.8997 5.52636Z" fill="#FFC6E9"/>
<path d="M43.5876 24.0397C43.1892 23.6359 42.7877 23.2354 42.3829 22.838L43.2003 25.0249L41.6509 26.4187L49.3003 23.4999L49.9987 21.4869L50.8253 20.4499L50.0475 20.2852L50.0384 20.2913L49.9957 20.3309L49.831 20.4834C48.9727 21.2578 48.0605 21.9703 47.1012 22.6154C46.2777 23.1644 45.4451 23.6219 44.7131 23.8659C44.1458 24.058 43.792 24.0733 43.5876 24.0397Z" fill="#FFC6E9"/>
<path fill-rule="evenodd" clip-rule="evenodd" d="M15.8938 8.45735L15.293 7.05435L14.6921 5.65135L14.8141 5.60255L15.1588 5.45615C16.8497 4.73817 18.5476 4.03664 20.2523 3.35165C21.6367 2.79303 23.0318 2.26121 24.4369 1.7565C25.056 1.5369 25.6325 1.3478 26.1144 1.21055C26.5292 1.08855 27.0599 0.954346 27.493 0.954346C27.8895 0.954346 28.3073 1.04585 28.652 1.13735C29.0241 1.238 29.4328 1.3722 29.8476 1.5247C30.6833 1.8297 31.6257 2.2262 32.498 2.6105C33.5154 3.06516 34.5241 3.53901 35.5236 4.0318L35.7249 4.1294L35.7798 4.15685L35.7981 4.166C36.1601 4.34679 36.4354 4.66397 36.5636 5.04778C36.6917 5.43158 36.6621 5.85056 36.4813 6.21255C36.3005 6.57453 35.9833 6.84988 35.5995 6.978C35.2157 7.10613 34.7967 7.07654 34.4348 6.89575L34.4195 6.8866L34.3707 6.8622L34.1816 6.7707C33.2151 6.29542 32.2399 5.83785 31.2567 5.3982C30.4517 5.03552 29.6349 4.69983 28.8075 4.3917C28.4976 4.27731 28.1832 4.17556 27.8651 4.0867C27.7458 4.05291 27.6246 4.02643 27.5021 4.0074L27.4747 4.0135C27.4137 4.02265 27.252 4.0562 26.9501 4.1416C26.4453 4.29086 25.9448 4.45461 25.4495 4.63265C24.2661 5.0505 22.8112 5.61475 21.3869 6.1851C19.7013 6.8602 18.0227 7.55259 16.3513 8.26215L16.0128 8.4055L15.8938 8.45735ZM13.89 7.6552C13.7312 7.28348 13.7265 6.86395 13.8769 6.48878C14.0274 6.11362 14.3205 5.81351 14.6921 5.6544L15.293 7.0574L15.8938 8.45735C15.7096 8.53642 15.5116 8.57839 15.3111 8.58087C15.1107 8.58334 14.9117 8.54627 14.7256 8.47176C14.5394 8.39726 14.3698 8.28679 14.2265 8.14667C14.0831 8.00656 13.9687 7.83955 13.89 7.6552ZM8.08581 19.7332C8.22336 19.5876 8.38827 19.4705 8.57109 19.3886C8.75392 19.3067 8.95109 19.2616 9.15134 19.2559C9.35159 19.2503 9.551 19.2841 9.73816 19.3555C9.92533 19.427 10.0966 19.5346 10.2422 19.6722L9.19296 20.7793L8.14681 21.8895C8.00117 21.752 7.88406 21.5871 7.80217 21.4043C7.72028 21.2214 7.67522 21.0243 7.66956 20.824C7.66389 20.6238 7.69774 20.4244 7.76916 20.2372C7.84058 20.05 7.94818 19.8788 8.08581 19.7332ZM22.0243 30.0635L30.4515 33.2233C31.2739 33.5315 32.1676 33.5964 33.0259 33.4104C33.8842 33.2243 34.6708 32.7952 35.2918 32.1741L41.6663 25.7996C41.9527 25.5137 42.3409 25.3532 42.7456 25.3535C43.1502 25.3538 43.5382 25.5148 43.8242 25.8012C44.1101 26.0875 44.2706 26.4757 44.2703 26.8804C44.27 27.2851 44.109 27.6731 43.8227 27.959L37.4482 34.3335C36.4127 35.3679 35.1015 36.0824 33.671 36.3918C32.2405 36.7011 30.7512 36.5922 29.3809 36.0781L20.7799 32.8543L20.7098 32.8207C20.2434 32.563 19.8005 32.265 19.3861 31.9301C18.892 31.5489 18.3125 31.0761 17.6872 30.5424C16.2873 29.3454 14.9065 28.1263 13.5453 26.8854C11.8821 25.3747 10.232 23.8497 8.59516 22.3104L8.26271 21.9993L8.14681 21.8895L9.19296 20.7793L10.2422 19.6722L10.355 19.7789L10.6814 20.087C12.3056 21.6134 13.9425 23.1262 15.5919 24.6254C16.9949 25.8972 18.4436 27.1874 19.6575 28.2183C20.2675 28.7337 20.8074 29.1729 21.2435 29.5115C21.6461 29.8195 21.8993 29.9903 22.0243 30.0605M11.694 36.5784C11.9532 36.2692 12.3245 36.0754 12.7263 36.0393C13.1282 36.0033 13.528 36.1281 13.8381 36.3862L16.7631 38.8262C17.4185 39.3734 18.2141 39.7263 19.0597 39.8449L22.8295 40.3756C23.0323 40.3978 23.2286 40.4606 23.4067 40.56C23.5849 40.6595 23.7412 40.7937 23.8666 40.9547C23.9919 41.1157 24.0836 41.3001 24.1364 41.4972C24.1891 41.6943 24.2018 41.9 24.1736 42.102C24.1455 42.3041 24.077 42.4985 23.9724 42.6736C23.8678 42.8488 23.7291 43.0011 23.5645 43.1217C23.3999 43.2423 23.2128 43.3286 23.0143 43.3756C22.8157 43.4225 22.6098 43.4292 22.4086 43.3951L18.6358 42.8675C17.2263 42.6695 15.9004 42.081 14.808 41.1686L11.8831 38.7286C11.7291 38.6001 11.602 38.4426 11.5089 38.2649C11.4159 38.0873 11.3589 37.8931 11.341 37.6933C11.3232 37.4936 11.3449 37.2923 11.4049 37.101C11.465 36.9097 11.5621 36.7321 11.6909 36.5784" fill="#FFC6E9"/>
</svg>

<svg xmlns="http://www.w3.org/2000/svg" width="61" height="44" fill="none"><path fill="#FFC6E9" fill-rule="evenodd" d="M11.62.594a3.05 3.05 0 0 0-4.032 1.532L.991 16.775a3.05 3.05 0 0 0 1.525 4.032l4.545 2.046a3.05 3.05 0 0 0 4.035-1.525l6.597-14.652a3.05 3.05 0 0 0-1.525-4.032zm-5.407 18.08a2.076 2.076 0 0 0 2.797-2.629 2.078 2.078 0 1 0-2.797 2.63m52.283 2.532a3.05 3.05 0 0 0 1.769-3.934L54.577 2.254A3.05 3.05 0 0 0 50.642.482l-4.657 1.766a3.05 3.05 0 0 0-1.77 3.934l5.692 15.021a3.05 3.05 0 0 0 3.932 1.772zM49.538 4.6a2.078 2.078 0 1 0 1.474 3.886 2.078 2.078 0 0 0-1.474-3.886" clip-rule="evenodd"/><path fill="#FFC6E9" fill-rule="evenodd" d="M45.9 5.526h.024a1.526 1.526 0 1 0-.265-3.04h-.025l-.079.009-.296.03-1.077.104c-.905.091-2.159.235-3.544.418-2.73.36-6.112.909-8.326 1.647-1.074.357-2.208 1.049-3.294 1.842-1.101.805-2.242 1.784-3.334 2.8a85 85 0 0 0-5.548 5.746c-1.278 1.446-1.573 3.752-.073 5.386.976 1.056 2.501 2.392 4.478 2.99 2.064.619 4.443.378 6.874-1.428l3.047-1.967.055-.034c.436.265 1.043.723 1.77 1.33a61 61 0 0 1 2.454 2.202q1.366 1.288 2.684 2.623l.168.174.043.043.015.015.18.183.229.119c1.229.61 2.58.39 3.63.036 1.091-.366 2.177-.988 3.101-1.6a27.5 27.5 0 0 0 3.279-2.59l.055-.05.015-.014.003-.003s-.268-.946-1.318-2.05L50 21.484 49.3 23.5l-7.649 2.916 1.55-1.391-.818-2.187a103 103 0 0 0-1.55-1.494 60 60 0 0 0-2.592-2.318c-.833-.702-1.699-1.367-2.422-1.763-1.201-.659-2.379-.171-3.013.24l-3.135 2.026-.043.03c-1.693 1.27-3.084 1.318-4.21.98-1.22-.367-2.302-1.257-3.11-2.136-.253-.274-.326-.802.113-1.299a82 82 0 0 1 5.34-5.536c1.04-.966 2.084-1.86 3.056-2.57.995-.727 1.83-1.2 2.462-1.41 1.903-.634 5.017-1.156 7.759-1.519q2.25-.296 4.508-.51l.284-.027z" clip-rule="evenodd"/><path fill="#FFC6E9" d="M43.588 24.04q-.598-.606-1.205-1.202l.817 2.187-1.55 1.394 7.65-2.92.699-2.012.826-1.037-.778-.165-.009.006-.042.04-.165.152a24.4 24.4 0 0 1-2.73 2.132c-.823.55-1.656 1.007-2.388 1.25-.567.193-.921.208-1.125.175"/><path fill="#FFC6E9" fill-rule="evenodd" d="m15.894 8.457-.601-1.403-.6-1.403.121-.048.345-.147q2.536-1.077 5.093-2.104 2.077-.838 4.185-1.595c.619-.22 1.195-.41 1.677-.546.415-.122.946-.257 1.379-.257.397 0 .814.092 1.159.183.372.101.78.235 1.196.388.835.305 1.778.701 2.65 1.086q1.526.682 3.026 1.42l.2.098.056.028.018.009a1.526 1.526 0 0 1-1.363 2.73l-.016-.01-.048-.024-.19-.091a88 88 0 0 0-2.924-1.373 40 40 0 0 0-2.45-1.006q-.465-.172-.942-.305a3 3 0 0 0-.363-.08l-.027.006c-.061.01-.223.043-.525.129q-.757.224-1.5.49c-1.184.419-2.639.983-4.063 1.553a265 265 0 0 0-5.036 2.077l-.338.143zm-2.004-.802a1.525 1.525 0 0 1 .802-2l.601 1.402.6 1.4a1.525 1.525 0 0 1-2.003-.802M8.086 19.733a1.526 1.526 0 0 1 2.156-.06l-1.049 1.106-1.046 1.11a1.524 1.524 0 0 1-.061-2.156m13.938 10.33 8.427 3.16a4.58 4.58 0 0 0 4.84-1.049l6.375-6.374a1.526 1.526 0 0 1 2.157 2.159l-6.375 6.375a7.63 7.63 0 0 1-8.067 1.744l-8.601-3.224-.07-.033a9 9 0 0 1-1.324-.89 46 46 0 0 1-1.699-1.389q-2.1-1.796-4.142-3.657a389 389 0 0 1-4.95-4.575L8.263 22l-.116-.11 1.046-1.11 1.05-1.108.112.107.326.308a402 402 0 0 0 4.91 4.538 177 177 0 0 0 4.066 3.593c.61.516 1.15.955 1.587 1.294.402.308.655.478.78.549m-10.33 6.517a1.525 1.525 0 0 1 2.144-.192l2.925 2.44c.656.547 1.451.9 2.297 1.019l3.77.53a1.525 1.525 0 1 1-.421 3.02l-3.773-.528a7.63 7.63 0 0 1-3.828-1.698l-2.925-2.44a1.526 1.526 0 0 1-.192-2.15" clip-rule="evenodd"/></svg>
